!!!OTL: WO EIN ALTAR STEHT DEN DER LENZ BEKRAENZT
!!!ARE: Europa, Mitteleuropa, Deutschland; France, Elsass
!!!SCT: B0027
!!!YEM: Copyright 1995, estate of Helmut Schaffrath.
**kern
*ICvox
*Ivox
*M4/4
*k[b-e-a-]
*E-:
=1
{4e-
4g
4f
4a-
=2
4.g
8a-
2b-}
=3
{4.b-
8cc
4b-
4g
=4
2.f
4r}
=5
{4f
4b-
4an
4cc
=6
2b-
2ee-}
=7
{4.dd
8b-
4an
8dd
8cc
=8
2b-
4r}
{8b-
8b-
=9
2b-
4cc
4dd
=10
2ee-
4dd
4cc}
=11
{4.b-
8g
4a-
4cc
=12
2.f
4r}
=13
{4.g
8g
4b-
4b-
=14
4cc
4ee-
8dd
8cc
8b-
8a-}
=15
{2g
4b-
4a-
=16
2g
4r}
{8b-
8b-
=17
2b-
4cc
4dd
=18
2ee-
4dd
4cc}
=19
{4.b-
8g
4a-
4cc
=20
2.f
4r}
=21
{4.g
8g
4a-
4b-
=22
4cc
4ee-
8dd
8cc
8b-
8a-}
=23
{2g
4b-
4a-
=24
2g
2r}
==
!!!AGN: politisch, national, Vaterlands - Lied
!!!ONB: ESAC (Essen Associative Code) Database: BOEHME
!!!AMT: simple quadruple
!!!AIN: vox
!!!EED: Helmut Schaffrath
!!!EEV: 1.0
*-
